build/category/MobileOutline.svg

<svg xmlns="http://www.w3.org/2000/svg" fill="none" viewBox="0 0 24 24" focusable="false"><path d="M0 0H24V24H0z"/><path fill="#74767B" fill-rule="evenodd" d="M8.98463 3.00004L9 3L15 3L15.0154 3.00004C15.7375 3.00367 16.3992 3.26239 16.9151 3.69069C17.5779 4.24097 18 5.07118 18 6L18 18C18 19.6569 16.6569 21 15 21L9 21C7.34314 21 6 19.6569 6 18L6 6C6 5.17621 6.33203 4.42998 6.86958 3.88782C7.40983 3.34293 8.15766 3.00419 8.98463 3.00004ZM13.7096 4.3L10.2904 4.3L10.2904 4.943C10.2904 5.30198 10.5814 5.593 10.9404 5.593L13.0596 5.593C13.4186 5.593 13.7096 5.30198 13.7096 4.943L13.7096 4.3ZM15.0053 5.07325C15.0082 5.0302 15.0096 4.98677 15.0096 4.943L15.0096 4.30003C15.5326 4.30292 15.9997 4.54199 16.3096 4.916C16.5534 5.21024 16.7 5.588 16.7 6L16.7 18C16.7 18.9389 15.9389 19.7 15 19.7L9 19.7C8.06112 19.7 7.3 18.9389 7.3 18L7.3 6C7.3 5.588 7.44656 5.21024 7.69039 4.91599C7.96748 4.5816 8.3702 4.35508 8.82619 4.30878C8.88021 4.30329 8.93499 4.30033 8.99039 4.30003L8.99039 4.943C8.99039 4.98676 8.99183 5.03019 8.99467 5.07324C9.06168 6.08947 9.9072 6.89299 10.9404 6.89299L13.0596 6.89299C14.0928 6.89299 14.9383 6.08947 15.0053 5.07325ZM12.998 17.4383C12.998 17.8967 12.689 18.2829 12.268 18.4C12.1827 18.4237 12.0928 18.4364 12 18.4364C11.9072 18.4364 11.8173 18.4237 11.732 18.4C11.3109 18.2829 11.002 17.8967 11.002 17.4383C11.002 16.8871 11.4488 16.4403 12 16.4403C12.5512 16.4403 12.998 16.8871 12.998 17.4383Z"/></svg>

<svg xmlns="http://www.w3.org/2000/svg" fill="none" viewBox="0 0 24 24" focusable="false"><path fill="#74767B" fill-rule="evenodd" d="M8.98 3h6.03A3.007 3.007 0 0 1 18 6v12c0 1.65-1.35 3-3 3H9c-1.66 0-3-1.35-3-3V6c0-.83.33-1.58.86-2.12C7.4 3.34 8.15 3 8.98 3m4.72 1.29h-3.41v.65c0 .36.29.65.65.65h2.11c.36 0 .65-.29.65-.65zm1.3.78V4.3c.53 0 .99.24 1.3.61.25.3.4.67.4 1.09v12c0 .93-.77 1.7-1.7 1.7H9c-.94 0-1.71-.77-1.71-1.7V6c0-.42.15-.79.4-1.09.27-.33.68-.56 1.13-.61h.17v.77c.07 1.01.91 1.82 1.95 1.82h2.11c1.04 0 1.88-.81 1.95-1.82M12.26 18.4c.42-.12.73-.51.73-.97 0-.55-.44-.99-.99-.99-.56 0-1 .44-1 .99 0 .46.31.85.73.97q.12.03.27.03c.09 0 .18-.01.26-.03"/></svg>
